X: 6
T: The Banks Of Lough Gowna
R: jig
M: 6/8
L: 1/8
K: Amin
ABG AGE|EDE G3|ABG AGE|c2d edc|-
ABG AGE|EDE G3|cde ged|1 BcB A2G:|2 BcB A2B||
cde g2a|gea ged|cde g2a|geg a2B|-
cde g2a|gea ged|cde ged|1 cAA A2B:|2 BcB A3|]


Tune 775	Setting 13901

